X: 22133
T: Kushka's
R: reel
M: 4/4
K: Eminor
|:BE E2 GEBE|edBA BE E2|AD D2 FDAD|AD D2 FDBA|
BE E2 GEBE|edBA BE E2|dBAB dBeB|dBAB GE E2:|
|:edBA BE E2|GEBE GE E2|dBAB dBeB|dA A2 edBA|
BE E2 GEBE|edBA BE E2|dBAB dBeB|dBAB GE E2:|

